X:1
T:Haralds polska, av Jonas Åkerlund
R:Polska
C:Jonas Åkerlund
Z: Skåning
N: Spelbar på säckpipa
O:Småland 
Q:1/4=180
M:3/4
L:1/8
K:G
|: D>G (3 GFG  B>G | D>G (3GFG  B>G | E>A AGA c>A |1 F>A (3GFE D2 :|2 (3FAF G4 ||
|: B>G  B<d  c>B | A>F  A<c  B>G|1 E>D  E<G  c>B | A>G  F<G  A2  :|2 E>D  E<G  c>A |FAF G4 ||

